packages/core/src/svgs/tokens/branded/BRWL.svg

<svg width="24" height="24" viewBox="0 0 24 24" fill="none" xmlns="http://www.w3.org/2000/svg">
<path d="M22 12C22 14.6522 20.9464 17.1957 19.0711 19.071C17.1957 20.9464 14.6522 22 12 22C9.34784 22 6.80429 20.9464 4.92892 19.071C3.05357 17.1957 2 14.6522 2 12C2 9.34785 3.05357 6.80429 4.92892 4.92892C6.80429 3.05357 9.34784 2 12 2C14.6522 2 17.1957 3.05357 19.0711 4.92892C20.9464 6.80429 22 9.34785 22 12Z" fill="url(#paint0_linear_364_5217)"/>
<path fill-rule="evenodd" clip-rule="evenodd" d="M12 21.4117C14.4961 21.4117 16.8901 20.4202 18.6551 18.6551C20.4202 16.89 21.4117 14.4961 21.4117 12C21.4117 9.50377 20.4202 7.10991 18.6551 5.34487C16.8901 3.57982 14.4961 2.58823 12 2.58823C9.5039 2.58823 7.10991 3.57982 5.34487 5.34487C3.57983 7.10991 2.58823 9.50377 2.58823 12C2.58823 14.4961 3.57983 16.89 5.34487 18.6551C7.10991 20.4202 9.5039 21.4117 12 21.4117ZM12 22C14.6522 22 17.1957 20.9464 19.0711 19.071C20.9464 17.1957 22 14.6522 22 12C22 9.34785 20.9464 6.80429 19.0711 4.92892C17.1957 3.05357 14.6522 2 12 2C9.34784 2 6.80429 3.05357 4.92892 4.92892C3.05357 6.80429 2 9.34785 2 12C2 14.6522 3.05357 17.1957 4.92892 19.071C6.80429 20.9464 9.34784 22 12 22Z" fill="url(#paint1_linear_364_5217)"/>
<path d="M12.2592 6.70599C12.4297 6.70599 12.5121 6.92364 12.3944 7.04717L8.58272 11.0648C8.46507 11.1942 8.54743 11.406 8.71801 11.406H10.1004C10.2239 11.406 10.3181 11.5295 10.2828 11.6589L9.30621 15.3825C9.29606 15.4234 9.27272 15.4601 9.23975 15.4866C9.20684 15.5132 9.16616 15.5281 9.1239 15.5295H5.67095C5.5886 15.5295 5.52979 15.459 5.52979 15.3766V15.3413L6.07684 13.1707C6.08347 13.1395 6.10045 13.1115 6.125 13.0912C6.14957 13.071 6.18028 13.0596 6.21213 13.0589H6.85919C6.94742 13.0589 7.0239 13 7.04154 12.9119L7.84154 9.60601C7.87684 9.47658 7.78271 9.35305 7.65918 9.35305H7.2886C7.25258 9.35168 7.21829 9.33726 7.19227 9.31228C7.16625 9.2873 7.15028 9.25369 7.14743 9.21776L7.1533 9.16482L7.75331 6.81776C7.75994 6.78659 7.77692 6.75859 7.80148 6.7383C7.82604 6.718 7.85675 6.70663 7.8886 6.70599H12.2592Z" fill="white"/>
<path d="M13.588 10.8236C13.7587 10.8236 13.841 11.0413 13.7234 11.1648L9.89987 15.1883C9.86377 15.2242 9.84263 15.2727 9.84099 15.3236C9.84099 15.4294 9.91744 15.5295 10.0352 15.5295H13.6822C13.7293 15.5295 13.7764 15.5118 13.8116 15.4706L15.3175 13.9825C15.3763 13.9236 15.4234 13.8472 15.4469 13.7589L15.8293 12.3766C15.8998 12.1412 16.194 12.0825 16.3293 12.2824L16.4469 12.4412C16.4826 12.4919 16.5065 12.5498 16.5166 12.611C16.5268 12.6721 16.5231 12.7347 16.5057 12.7941L16.1175 14.306C16.0936 14.3932 16.047 14.4723 15.9822 14.5353L14.4175 16.0295C14.3661 16.0815 14.2964 16.1112 14.2234 16.1119H6.72338C6.61749 16.1119 6.52337 16.1706 6.47044 16.2648C6.41161 16.3824 6.42337 16.4883 6.51161 16.5883L6.97631 17.2354C7.01162 17.2648 7.05279 17.2883 7.10573 17.2883H15.3411C15.3939 17.2883 15.441 17.2648 15.4763 17.2295L16.994 15.5825C17.0497 15.5201 17.0901 15.4456 17.1116 15.3648L17.5528 13.6824C17.5621 13.6487 17.5627 13.6133 17.5544 13.5792C17.5462 13.5453 17.5295 13.514 17.5057 13.4884L16.9058 12.8824C16.8709 12.8438 16.852 12.7933 16.8528 12.7413C16.8528 12.6883 16.8705 12.6412 16.9117 12.6001L18.0881 11.3825C18.147 11.3236 18.1939 11.2412 18.2116 11.1589L18.4587 10.2177C18.4728 10.1668 18.4738 10.113 18.4614 10.0615C18.4491 10.0101 18.4238 9.96256 18.3881 9.92358L17.9175 9.42357C17.6998 9.20007 17.3292 9.31774 17.2705 9.62945L17.1999 10.0295C17.184 10.1048 17.1472 10.1741 17.0939 10.2295L15.8939 11.4059C15.8769 11.4258 15.8556 11.4418 15.8317 11.4527C15.8079 11.4637 15.7819 11.4693 15.7557 11.4693C15.7295 11.4693 15.7036 11.4637 15.6797 11.4527C15.6558 11.4418 15.6346 11.4258 15.6175 11.4059L15.3116 11.0531C15.2764 11.0141 15.2575 10.9632 15.2586 10.9107C15.2595 10.8582 15.2807 10.8081 15.3175 10.7707L16.4645 9.69423C16.5234 9.63535 16.5705 9.553 16.5939 9.45884L16.8351 8.50007C16.8483 8.44995 16.8487 8.39734 16.8363 8.34702C16.824 8.29669 16.7994 8.25023 16.7645 8.21184L15.3704 6.74125C15.3573 6.72816 15.3417 6.71778 15.3246 6.71071C15.3074 6.70364 15.289 6.70003 15.2704 6.70007H13.141C13.0527 6.70007 12.9763 6.7589 12.9587 6.84713L12.0233 10.5648C11.994 10.6941 12.0822 10.8177 12.2057 10.8177H13.588V10.8236Z" fill="white"/>
<defs>
<linearGradient id="paint0_linear_364_5217" x1="12" y1="3.94706" x2="12" y2="22" gradientUnits="userSpaceOnUse">
<stop stop-color="#DD4076"/>
<stop offset="0.52" stop-color="#AF3466"/>
<stop offset="1" stop-color="#471840"/>
</linearGradient>
<linearGradient id="paint1_linear_364_5217" x1="12" y1="2" x2="12" y2="22" gradientUnits="userSpaceOnUse">
<stop stop-color="#F42776"/>
<stop offset="1" stop-color="#E92776"/>
</linearGradient>
</defs>
</svg>

<svg xmlns="http://www.w3.org/2000/svg" width="24" height="24" fill="none" viewBox="0 0 24 24">
    <path fill="url(#BRWL__a)" d="M22 12a10 10 0 1 1-20 0 10 10 0 0 1 20 0"/>
    <path fill="url(#BRWL__b)" fill-rule="evenodd" d="M12 21.412a9.411 9.411 0 1 0 0-18.823 9.411 9.411 0 0 0 0 18.823M12 22a10 10 0 1 0 0-20 10 10 0 0 0 0 20" clip-rule="evenodd"/>
    <path fill="#fff" d="M12.26 6.706c.17 0 .252.218.134.341l-3.811 4.018c-.118.13-.036.341.135.341H10.1c.124 0 .218.123.183.253l-.977 3.723a.19.19 0 0 1-.182.148H5.67c-.082 0-.141-.071-.141-.153v-.036l.547-2.17a.14.14 0 0 1 .135-.112h.647a.18.18 0 0 0 .183-.147l.8-3.306c.035-.13-.06-.253-.183-.253h-.37a.15.15 0 0 1-.142-.135l.006-.053.6-2.347a.14.14 0 0 1 .136-.112z"/>
    <path fill="#fff" d="M13.588 10.824c.17 0 .253.217.135.34L9.9 15.189a.2.2 0 0 0-.059.136c0 .105.076.206.194.206h3.647a.17.17 0 0 0 .13-.06l1.506-1.488a.5.5 0 0 0 .129-.223l.382-1.382c.07-.236.365-.295.5-.095l.118.16a.41.41 0 0 1 .059.352l-.389 1.512a.5.5 0 0 1-.135.23l-1.564 1.493a.28.28 0 0 1-.195.083h-7.5a.29.29 0 0 0-.253.153.27.27 0 0 0 .042.323l.464.647c.036.03.077.053.13.053h8.235a.2.2 0 0 0 .135-.058l1.518-1.648a.5.5 0 0 0 .118-.217l.44-1.683a.2.2 0 0 0-.046-.194l-.6-.606a.2.2 0 0 1-.053-.14q-.002-.08.059-.142l1.176-1.217a.47.47 0 0 0 .124-.224l.247-.941a.31.31 0 0 0-.07-.294l-.471-.5a.38.38 0 0 0-.648.205l-.07.4a.4.4 0 0 1-.106.2l-1.2 1.177a.18.18 0 0 1-.138.063.18.18 0 0 1-.139-.063l-.305-.353a.206.206 0 0 1 .006-.282l1.147-1.077a.5.5 0 0 0 .129-.235l.241-.959a.31.31 0 0 0-.07-.288l-1.395-1.47a.14.14 0 0 0-.1-.042h-2.129a.18.18 0 0 0-.182.147l-.936 3.718c-.029.13.06.253.183.253h1.382z"/>
    <defs>
        <linearGradient id="BRWL__a" x1="12" x2="12" y1="3.947" y2="22" gradientUnits="userSpaceOnUse">
            <stop stop-color="#DD4076"/>
            <stop offset=".52" stop-color="#AF3466"/>
            <stop offset="1" stop-color="#471840"/>
        </linearGradient>
        <linearGradient id="BRWL__b" x1="12" x2="12" y1="2" y2="22" gradientUnits="userSpaceOnUse">
            <stop stop-color="#F42776"/>
            <stop offset="1" stop-color="#E92776"/>
        </linearGradient>
    </defs>
</svg>
